X: 13386
T: Fleur De Mandragore
R: reel
M: 4/4
K: Amajor
EGAG EABB|Aced cAAF|EGAG EAB2-|BBBd cAAF|
EGAG EABB|Aced cAAF|EGAG EAB2-|BBBd cAAF|
EGAG EABB|Aced cAAF|EGAG EAB2-|BBBd cAAF|
EGAG EABB|Aced cAAF|EGAG EAB2-|BBBd cAAG Aceg||
|:a3a3a2|bAaA gAec|dged cABc|defg agfe|
a3a3ga|bAaA gAec|dged cABc|1 dcBc BAce:|2 dcBc BAAF||

